img/garden.svg

<svg width="52" height="52" viewBox="0 0 52 52" fill="none" xmlns="http://www.w3.org/2000/svg">
<circle cx="26" cy="26" r="25" fill="white" stroke="#172343" stroke-width="2"/>
<path d="M8.40909 37H42.5455C42.8182 37 43 36.8163 43 36.5407C43 36.2651 42.8182 36.0814 42.5455 36.0814H38.2273V31.3048C40.6818 30.9374 42.5 27.4927 42.5 23.1754C42.5 18.5825 40.4091 15 37.7727 15C35.1364 15 33.0455 18.5825 33.0455 23.1754C33.0455 27.4927 34.9091 30.9374 37.3182 31.3048V36.0355H31.8636V33.0501C31.8636 32.7745 31.6818 32.5908 31.4091 32.5908H25.8636V31.3048C25.8636 30.3403 26.5455 29.6054 27.3636 29.6054C28.1818 29.6054 28.8636 30.3862 28.8636 31.3048C28.8636 31.5804 29.0455 31.7641 29.3182 31.7641C29.5909 31.7641 29.7727 31.5804 29.7727 31.3048C29.7727 29.8351 28.6818 28.6868 27.3636 28.6868C26.7727 28.6868 26.2727 28.9165 25.8636 29.2839V27.1253C25.8636 26.3904 26.3636 25.7933 27.0455 25.7933C27.7273 25.7933 28.2273 26.3904 28.2273 27.1253C28.2273 27.4008 28.4091 27.5846 28.6818 27.5846C28.9545 27.5846 29.1364 27.4008 29.1364 27.1253C29.1364 25.8852 28.2273 24.8747 27.0455 24.8747C26.6364 24.8747 26.2273 25.0125 25.8636 25.2422V23.7265C25.8636 23.2213 26.1818 22.8539 26.6364 22.8539C27.0909 22.8539 27.4091 23.2672 27.4091 23.7265C27.4091 24.0021 27.5909 24.1858 27.8636 24.1858C28.1364 24.1858 28.3182 24.0021 28.3182 23.7265C28.3182 22.7161 27.5909 21.9353 26.6364 21.9353C26.1364 21.9353 25.7273 22.1649 25.4091 22.4864C25.0909 22.119 24.6818 21.9353 24.1818 21.9353C23.2727 21.9353 22.5 22.762 22.5 23.7265C22.5 24.0021 22.6818 24.1858 22.9545 24.1858C23.2273 24.1858 23.4091 24.0021 23.4091 23.7265C23.4091 23.2213 23.7273 22.8539 24.1818 22.8539C24.6364 22.8539 24.9545 23.2672 24.9545 23.7265V25.2881C24.6364 25.0585 24.2273 24.9207 23.7727 24.9207C22.6364 24.9207 21.6818 25.9311 21.6818 27.1712C21.6818 27.4468 21.8636 27.6305 22.1364 27.6305C22.4091 27.6305 22.5909 27.4468 22.5909 27.1712C22.5909 26.4363 23.0909 25.8392 23.7727 25.8392C24.4545 25.8392 24.9545 26.4363 24.9545 27.1712V29.3299C24.5455 28.9624 24 28.7328 23.4545 28.7328C22.1364 28.7328 21.0455 29.9269 21.0455 31.3507C21.0455 31.6263 21.2273 31.81 21.5 31.81C21.7727 31.81 21.9545 31.6263 21.9545 31.3507C21.9545 30.3862 22.6364 29.6514 23.4545 29.6514C24.2727 29.6514 24.9545 30.4321 24.9545 31.3507V32.6367H19.4091C19.1364 32.6367 18.9545 32.8205 18.9545 33.096V36.0814H13.7273V31.3048C16.1364 30.9833 18 28.0898 18 24.5532C18 20.7871 15.8636 17.7557 13.2727 17.7557C10.6818 17.7557 8.54545 20.7871 8.54545 24.5532C8.54545 28.0898 10.4545 30.9833 12.8182 31.3048V36.0355H8.45455C8.18182 36.0355 8 36.2192 8 36.4948C8 36.7704 8.18182 37 8.40909 37ZM33.9091 23.1754C33.9091 19.2255 35.6818 15.9186 37.7273 15.9186C39.7727 15.9186 41.5455 19.2255 41.5455 23.1754C41.5455 26.8038 40.0455 29.9269 38.1818 30.3862V28.5031C38.5 28.2276 39.0909 27.5386 40.3636 25.8852C40.5 25.7015 40.5 25.38 40.2727 25.2422C40.0909 25.1044 39.7727 25.1044 39.6364 25.334C39.1364 25.977 38.5909 26.666 38.1818 27.1712V20.7871C38.1818 20.5115 38 20.3278 37.7273 20.3278C37.4545 20.3278 37.2727 20.5115 37.2727 20.7871V24.3236L36.0455 22.8539C35.8636 22.6701 35.5909 22.6242 35.4091 22.8079C35.2273 22.9916 35.1818 23.2672 35.3636 23.4509L37.3182 25.7015V30.3403C35.4091 29.9269 33.9091 26.8038 33.9091 23.1754ZM19.8636 33.5553H30.9545V36.0355H19.8636V33.5553ZM9.40909 24.5532C9.40909 21.2923 11.1364 18.6743 13.2273 18.6743C15.3182 18.6743 17.0455 21.2923 17.0455 24.5532C17.0455 27.5386 15.5455 30.0188 13.6818 30.3862V28.5031C14 28.2276 14.5909 27.5386 15.8636 25.8852C16 25.7015 16 25.38 15.7727 25.2422C15.5909 25.1044 15.2727 25.1044 15.1364 25.334C14.6364 25.977 14.0909 26.666 13.6818 27.1712V20.7871C13.6818 20.5115 13.5 20.3278 13.2273 20.3278C12.9545 20.3278 12.7727 20.5115 12.7727 20.7871V24.3236L11.5 22.8539C11.3182 22.6701 11.0455 22.6242 10.8636 22.8079C10.6818 22.9916 10.6364 23.2672 10.8182 23.4509L12.7727 25.7015V30.3403C10.9091 30.0647 9.40909 27.5846 9.40909 24.5532Z" fill="black"/>
</svg>

<svg width="52" height="52" fill="none" xmlns="http://www.w3.org/2000/svg"><circle cx="26" cy="26" r="25" fill="#fff" stroke="#172343" stroke-width="2"/><path d="M8.41 37h34.136c.272 0 .454-.184.454-.46 0-.275-.182-.459-.455-.459h-4.318v-4.776c2.455-.368 4.273-3.812 4.273-8.13 0-4.593-2.09-8.175-4.727-8.175-2.637 0-4.728 3.582-4.728 8.175 0 4.318 1.864 7.762 4.273 8.13v4.73h-5.454V33.05c0-.275-.182-.46-.455-.46h-5.545v-1.285c0-.965.681-1.7 1.5-1.7.818 0 1.5.781 1.5 1.7 0 .275.181.46.454.46s.455-.185.455-.46c0-1.47-1.091-2.618-2.41-2.618-.59 0-1.09.23-1.5.597v-2.159c0-.735.5-1.332 1.183-1.332.681 0 1.181.597 1.181 1.332 0 .276.182.46.455.46s.454-.184.454-.46c0-1.24-.909-2.25-2.09-2.25-.41 0-.819.137-1.182.367v-1.515c0-.506.318-.873.772-.873.455 0 .773.413.773.873 0 .275.182.459.455.459.272 0 .454-.184.454-.46 0-1.01-.727-1.79-1.682-1.79-.5 0-.909.229-1.227.55a1.55 1.55 0 0 0-1.227-.55c-.91 0-1.682.826-1.682 1.79 0 .276.182.46.454.46.273 0 .455-.184.455-.46 0-.505.318-.872.773-.872.454 0 .773.413.773.873v1.561a2.011 2.011 0 0 0-1.182-.367c-1.137 0-2.091 1.01-2.091 2.25 0 .276.182.46.454.46.273 0 .455-.184.455-.46 0-.735.5-1.332 1.182-1.332.681 0 1.181.597 1.181 1.332v2.159c-.409-.368-.954-.597-1.5-.597-1.318 0-2.409 1.194-2.409 2.618 0 .275.182.459.455.459s.454-.184.454-.46c0-.964.682-1.699 1.5-1.699.819 0 1.5.781 1.5 1.7v1.286H19.41c-.273 0-.454.184-.454.459v2.985h-5.228v-4.776C16.137 30.983 18 28.09 18 24.553c0-3.766-2.136-6.797-4.727-6.797s-4.728 3.031-4.728 6.797c0 3.537 1.91 6.43 4.273 6.752v4.73H8.455c-.273 0-.455.184-.455.46 0 .275.182.505.41.505Zm25.5-13.825c0-3.95 1.772-7.256 3.817-7.256 2.046 0 3.819 3.306 3.819 7.256 0 3.629-1.5 6.752-3.364 7.211v-1.883c.318-.275.909-.964 2.182-2.618.136-.184.136-.505-.091-.643-.182-.138-.5-.138-.637.092-.5.643-1.045 1.332-1.454 1.837v-6.384c0-.275-.182-.46-.455-.46-.272 0-.454.184-.454.46v3.537l-1.228-1.47c-.181-.184-.454-.23-.636-.046s-.227.46-.045.643l1.954 2.25v4.64c-1.909-.414-3.409-3.537-3.409-7.166Zm-14.046 10.38h11.09v2.48h-11.09v-2.48ZM9.409 24.553c0-3.26 1.727-5.879 3.818-5.879s3.819 2.618 3.819 5.88c0 2.985-1.5 5.465-3.364 5.832v-1.883c.318-.275.909-.964 2.182-2.618.136-.184.136-.505-.091-.643-.182-.138-.5-.138-.637.092-.5.643-1.045 1.332-1.454 1.837v-6.384c0-.275-.182-.46-.455-.46s-.454.184-.454.46v3.537l-1.273-1.47c-.182-.184-.454-.23-.636-.046s-.228.46-.046.643l1.955 2.25v4.64c-1.864-.276-3.364-2.756-3.364-5.788Z" fill="#000"/></svg>
